!!!!SEGMENT: pl-cz--i-155--012_anonim--landler-5.krn
!!!cenid: 18xx:2521
!!!COM: Anonim
!!!COM-rismid: pe30004985
!!!CDT:
!!!CNT:
!!!OTL: Ländler 5
!!!PDT:
!!!AGN: Secular
!!!SMS-siglum: PL-CZ
!!!SMS-shelfmark: I-155
!!!SMS-shelfwork: 012 W
!!!SMS-variant:
!!!SMS-altvar:
!!!NIFC-rismid: 1001012527
!!!URL-scan: http://repozytorium.nifc.pl/skany/pl-cz-nut--i-155
!!!ONB-nifc: UWAGA: 10 krótkich Landler numerowanych na pięcioliniach (nr 1-10, odpowiednio 008-017). m.in skan 0026. Uwaga: 5 partii
!!!key:
**kern	**kern	**kern	**kern	**kern
*part5	*part4	*part3	*part2	*part1
*staff5	*staff4	*staff3	*staff2	*staff1
*Icor	*Icor	*Ifagot	*Iclars	*Iclars
*I"Corno Secondo	*I"Corno Primo.	*I"Fagotto	*I"Clarinetto 2do	*I"Clarinetto Primo[?]
*I'cor 2	*I'cor 1	*I'fag	*I'cl 2	*I'cl 1
*clefG2	*clefG2	*clefF4	*clefG2	*clefG2
*ITrd5c9	*ITrd5c9	*	*ITrd1c2	*ITrd1c2
*k[b-]	*k[b-]	*k[b-]	*k[b-]	*k[b-]
*F:	*F:	*F:	*F:	*F:
*M3/4	*M3/4	*M3/4	*M3/4	*M3/4
*	*	*	*all\right	*all\right
*	*	*	*2\right	*2\right
*>[A,A,B,B]	*>[A,A,B,B]	*>[A,A,B,B]	*>[A,A,B,B]	*>[A,A,B,B]
*>A	*>A	*>A	*>A	*>A
!	!	!	!	!LO:TX:a:t=P:problem:partia zapisana w sekcji źródła przeznaczonej dla cl 2
4ryy	4ryy	4ryy	8a/L	8cc\L
.	.	.	8f/J	8a\J
=1	=1	=1	=1	=1
2.ryy	2.ryy	2.ryy	8g\L	8b-\L
.	.	.	8a\	8cc\
.	.	.	8b-\	8dd\
.	.	.	8cc\	8ee\
.	.	.	8dd\	8ff\
.	.	.	8ee\J	8gg\J
=2	=2	=2	=2	=2
2.ryy	2.ryy	2.ryy	8ff\L	4.aa\
.	.	.	8cc\J	.
*	*	*	*tremolo	*
.	.	.	8a\L	.
.	.	.	8cc\	8ff\
.	.	.	8a\	4cc\
.	.	.	8cc\J	.
=3	=3	=3	=3	=3
2.ryy	2.ryy	2.ryy	8b-\L	(>8b-\L
.	.	.	8cc\	8gg\J)
.	.	.	8b-\	4ee\
.	.	.	8cc\	.
.	.	.	8b-\	8cc\L
.	.	.	8cc\J	8ee\J
*	*	*	*Xtremolo	*
=4	=4	=4	=4	=4
2.ryy	2.ryy	2.ryy	8a\L	8cc\L
.	.	.	8ff\J	8aa\J
.	.	.	4cc\	4ff\
.	.	.	8a/L	8cc\L
.	.	.	8f/J	8a\J
=5	=5	=5	=5	=5
2.ryy	2.ryy	2.ryy	8g\L	8b-\L
.	.	.	8a\	8cc\
.	.	.	8b-\	8dd\
.	.	.	8cc\	8ee\
.	.	.	8dd\	8ff\
.	.	.	8ee\J	8gg\J
=6	=6	=6	=6	=6
2.ryy	2.ryy	2.ryy	8ff\L	4.aa\
.	.	.	8cc\J	.
*	*	*	*tremolo	*
.	.	.	8a\L	.
.	.	.	8cc\	8ff\
.	.	.	8a\	4cc\
.	.	.	8cc\J	.
*	*	*	*Xtremolo	*
=7	=7	=7	=7	=7
2.ryy	2.ryy	2.ryy	8cc\L	8ee\L
.	.	.	8ee\	8gg\
.	.	.	8b-\	8cc\
.	.	.	8dd\	8bb-\
.	.	.	8cc\	8aa\
.	.	.	8b-\J	8gg\J
=8	=8	=8	=8	=8
2ryy	2ryy	2ryy	2a\	2ff\
!	!	!	!LO:LB:g=original	!LO:LB:g=original
=:||:	=:||:	=:||:	=:||:=	=:||:
*>B	*>B	*>B	*>B	*>B
4ryy	4ryy	4ryy	4a	4cc
=9	=9	=9	=9	=9
!	!	!	!LO:TX:t=P:problem:mixed beam	!
2.ryy	2.ryy	2.ryy	8a/L	8cc\L
.	.	.	8aa\J	8ccc\J
.	.	.	4ff\	4aa\
.	.	.	8cc\L	8ff\L
.	.	.	8ff\J	8aa\J
=10	=10	=10	=10	=10
2.ryy	2.ryy	2.ryy	8gg\L	8bb-\L
.	.	.	8ee\J	8gg\J
!	!	!	!	!LO:TX:b:t=fis
.	.	.	4cc\	4ee\
.	.	.	8cc\L	8cc\L
.	.	.	8b-\J	8a\J
=11	=11	=11	=11	=11
2.ryy	2.ryy	2.ryy	8a\L	8cc\L
.	.	.	8aa\J	8ccc\J
.	.	.	4ff\	4aa\
.	.	.	8cc\L	8ff\L
.	.	.	8ff\J	8aa\J
=12	=12	=12	=12	=12
2.ryy	2.ryy	2.ryy	8gg\L	8bb-\L
.	.	.	8ee\J	8gg\J
.	.	.	4cc\	4ff\
.	.	.	8a/L	8cc\L
.	.	.	8f/J	8a\J
=13	=13	=13	=13	=13
2.ryy	2.ryy	2.ryy	8g\L	8b-\L
.	.	.	8a\	8cc\
.	.	.	8b-\	8dd\
.	.	.	8cc\	8ee\
.	.	.	8dd\	8ff\
.	.	.	8ee\J	8gg\J
=14	=14	=14	=14	=14
2.ryy	2.ryy	2.ryy	8ff\L	8aa\L
.	.	.	8cc\J	8ff\
*	*	*	*tremolo	*
.	.	.	8a\L	8ee\
.	.	.	8cc\	8ff\J
.	.	.	8a\	4cc\
.	.	.	8cc\J	.
=15	=15	=15	=15	=15
2.ryy	2.ryy	2.ryy	8gg\L	8bb-\L
.	.	.	8ee\J	8aa\
.	.	.	8cc\L	8ff#X\
.	.	.	8b-\	8gg\
.	.	.	8cc\	8ee\
.	.	.	8b-\J	8cc\J
*	*	*	*Xtremolo	*
=16	=16	=16	=16	=16
2ryy	2ryy	2ryy	2a\	2ff\
=:|!	=:|!	=:|!	=:|!	=:|!
*-	*-	*-	*-	*-
!!!system-decoration: [(s1,s2,s3)][(s4,s5)]
!!!RDF**kern: > = above
!!!RDF**kern: < = below
!!!AIN: 2 clars 2 cor 1 fagot
!!!ENC: Krzysztof Stępień
!!!END: 2021-06-16
!!!EED: Antoni Szymański
!!!EST: 2021-06-21
